**kern	**kern	**dynam
*part1	*part1	*part1
*staff2	*staff1	*
*I"Piano	*	*
*clefF4	*clefG2	*
*k[b-]	*k[b-]	*
=1	=1	=1
*	*^	*
4DD 4AA	4F#X^^ 4f#X	[2cn	>
2DD 2AA	2F# 2f#	.	.
.	.	8cL]	.
.	.	16B-XL	.
.	.	16AJJ	]
=	=	=	=
4DD 4BB- 4D	4Fn^^ 4fn	2.B-	.
2DD 2BB- 2D	2F 2f	.	.
=	=	=	=
!	!LO:TX:b:i:t=rit.  e  dim.	!	!
4DD 4BBn	4E< 4e<	2G#X^^<	.
[4DD 4BB	2E< 2e<	.	.
4DD] 4BB-X	.	4Gn^^<	.
*	*v	*v	*
=	=	=
4DD 4AA	4F#X< 4d<	.
2DD 2AA	2F#< 2d<	.
=	=	=
4r	4ryy	.
2DD 2AA	2F#X< 2d<	pp
=	=	=
4r	4r	.
[2D [2A	[2f#X [2ff#X	>
=	=	=
*^	*	*
2.DDD) 2.DD	2.D] 2.A]	2.f#]) 2.ff#]	]
*v	*v	*	*
==	==	==
*-	*-	*-
!!!system-decoration: {(s1,s2)}
!!!RDF**kern: < = below
